austria/municipalities/70706.svg

<?xml version="1.0" encoding="UTF-8"?>
<!DOCTYPE svg PUBLIC "-//W3C//DTD SVG 1.1//EN" "http://www.w3.org/Graphics/SVG/1.1/DTD/svg11.dtd">
<svg xmlns="http://www.w3.org/2000/svg" version="1.1" width="166px" height="192px" style="shape-rendering:geometricPrecision; text-rendering:geometricPrecision; image-rendering:optimizeQuality; fill-rule:evenodd; clip-rule:evenodd" xmlns:xlink="http://www.w3.org/1999/xlink">
<g><path style="opacity:1" fill="#0d0908" d="M -0.5,-0.5 C 54.8333,-0.5 110.167,-0.5 165.5,-0.5C 165.5,39.1667 165.5,78.8333 165.5,118.5C 157.512,159.154 133.179,183.488 92.5,191.5C 85.5,191.5 78.5,191.5 71.5,191.5C 30.4715,182.805 6.47145,157.805 -0.5,116.5C -0.5,77.5 -0.5,38.5 -0.5,-0.5 Z"/></g>
<g><path style="opacity:1" fill="#413e3c" d="M 42.5,3.5 C 81.9965,2.50143 121.663,2.16809 161.5,2.5C 161.5,3.5 161.5,4.5 161.5,5.5C 161.167,5.5 160.833,5.5 160.5,5.5C 121.514,3.50587 82.1808,2.8392 42.5,3.5 Z"/></g>
<g><path style="opacity:1" fill="#fdfdfd" d="M 3.5,3.5 C 15.8513,3.16764 28.1847,3.50097 40.5,4.5C 28.2345,40.7964 16.0679,77.1297 4,113.5C 3.50001,76.8348 3.33335,40.1682 3.5,3.5 Z"/></g>
<g><path style="opacity:1" fill="#fdfdfd" d="M 42.5,4.5 C 42.5,4.16667 42.5,3.83333 42.5,3.5C 82.1808,2.8392 121.514,3.50587 160.5,5.5C 157.563,12.9773 155.23,20.6439 153.5,28.5C 135.992,79.6898 118.659,131.023 101.5,182.5C 101.5,182.833 101.5,183.167 101.5,183.5C 82.0347,123.771 62.3681,64.1042 42.5,4.5 Z"/></g>
<g><path style="opacity:1" fill="#341914" d="M 160.5,5.5 C 160.833,5.5 161.167,5.5 161.5,5.5C 162.833,41.1667 162.833,76.8333 161.5,112.5C 161.667,77.8317 161.5,43.1651 161,8.5C 158.765,15.7122 156.265,22.7122 153.5,29.5C 153.5,29.1667 153.5,28.8333 153.5,28.5C 155.23,20.6439 157.563,12.9773 160.5,5.5 Z"/></g>
<g><path style="opacity:1" fill="#d73023" d="M 41.5,5.5 C 60.9689,65.2401 80.6356,124.907 100.5,184.5C 63.6742,192.158 34.8409,180.158 14,148.5C 7.55162,138.038 4.55162,126.704 5,114.5C 17.0772,78.1015 29.2439,41.7682 41.5,5.5 Z"/></g>
<g><path style="opacity:1" fill="#2c211e" d="M 41.5,5.5 C 41.5,4.83333 41.8333,4.5 42.5,4.5C 62.3681,64.1042 82.0347,123.771 101.5,183.5C 101.5,184.167 101.167,184.5 100.5,184.5C 80.6356,124.907 60.9689,65.2401 41.5,5.5 Z"/></g>
<g><path style="opacity:1" fill="#d63023" d="M 161.5,112.5 C 158.068,148.921 139.068,172.921 104.5,184.5C 103.287,184.253 102.62,183.586 102.5,182.5C 120.072,131.784 137.072,80.7838 153.5,29.5C 156.265,22.7122 158.765,15.7122 161,8.5C 161.5,43.1651 161.667,77.8317 161.5,112.5 Z"/></g>
<g><path style="opacity:1" fill="#262524" d="M 103.5,24.5 C 102.5,23.8333 101.5,23.1667 100.5,22.5C 100.369,21.6236 100.702,20.9569 101.5,20.5C 102.705,21.5769 103.372,22.9102 103.5,24.5 Z"/></g>
<g><path style="opacity:1" fill="#185a2a" d="M 100.5,22.5 C 101.5,23.1667 102.5,23.8333 103.5,24.5C 104.455,26.7099 105.955,27.0432 108,25.5C 108.333,30.5 108.667,35.5 109,40.5C 113.055,43.8797 117.221,44.213 121.5,41.5C 122.514,40.3263 123.847,39.6596 125.5,39.5C 127.257,40.292 128.591,41.6253 129.5,43.5C 130.609,42.4104 131.609,42.4104 132.5,43.5C 131.167,45.1667 131.167,46.8333 132.5,48.5C 131.757,49.1818 131.091,49.8485 130.5,50.5C 129.22,51.9313 127.553,52.5979 125.5,52.5C 120.483,53.9562 119.483,56.6229 122.5,60.5C 123.406,61.9649 124.739,62.9649 126.5,63.5C 127.731,64.6507 127.731,65.8173 126.5,67C 127.373,68.045 128.373,68.8783 129.5,69.5C 128.081,70.4511 126.415,70.7845 124.5,70.5C 124.649,71.552 124.483,72.552 124,73.5C 117.285,70.0727 110.118,68.406 102.5,68.5C 101.833,68.5 101.167,68.5 100.5,68.5C 95.804,68.6706 91.1373,69.1706 86.5,70C 84.5087,70.3736 82.842,71.207 81.5,72.5C 78.7238,71.5879 76.0572,70.5879 73.5,69.5C 74.5463,67.2151 74.5463,64.8817 73.5,62.5C 74.5,62.5 75.5,62.5 76.5,62.5C 80.6323,62.0715 82.2989,60.0715 81.5,56.5C 81.4894,54.9826 80.8228,53.8159 79.5,53C 77.0602,51.6966 74.5602,50.53 72,49.5C 71.2352,49.5699 70.7352,49.9033 70.5,50.5C 69.8333,50.5 69.5,50.1667 69.5,49.5C 71.1128,48.1619 71.6128,46.4952 71,44.5C 70.6012,44.7284 70.4346,45.0618 70.5,45.5C 69.6618,45.1583 69.3284,44.4916 69.5,43.5C 70.9187,42.5489 72.5853,42.2155 74.5,42.5C 74.5,41.5 74.5,40.5 74.5,39.5C 75.5,39.5 76.5,39.5 77.5,39.5C 81.8835,43.5327 86.8835,44.3661 92.5,42C 93.2524,41.3292 93.5858,40.4959 93.5,39.5C 94.3255,35.0181 94.8255,30.3514 95,25.5C 97.0449,27.0432 98.5449,26.7099 99.5,24.5C 99.3284,23.5084 99.6618,22.8417 100.5,22.5 Z"/></g>
<g><path style="opacity:1" fill="#0c0c0a" d="M 99.5,24.5 C 98.5449,26.7099 97.0449,27.0432 95,25.5C 94.8255,30.3514 94.3255,35.0181 93.5,39.5C 93.334,34.1563 93.5006,28.8229 94,23.5C 95.6998,25.2989 97.5331,25.6323 99.5,24.5 Z"/></g>
<g><path style="opacity:1" fill="#282c26" d="M 77.5,39.5 C 80.8211,40.4955 84.1544,41.4955 87.5,42.5C 89.7408,41.8714 91.7408,40.8714 93.5,39.5C 93.5858,40.4959 93.2524,41.3292 92.5,42C 86.8835,44.3661 81.8835,43.5327 77.5,39.5 Z"/></g>
<g><path style="opacity:1" fill="#181716" d="M 77.5,39.5 C 76.5,39.5 75.5,39.5 74.5,39.5C 74.5,40.5 74.5,41.5 74.5,42.5C 72.5853,42.2155 70.9187,42.5489 69.5,43.5C 68.9569,43.44 68.6236,43.1067 68.5,42.5C 70.0453,41.5481 71.712,41.2148 73.5,41.5C 73.5755,37.3719 74.9088,36.7052 77.5,39.5 Z"/></g>
<g><path style="opacity:1" fill="#1f241e" d="M 103.5,24.5 C 105.388,25.2751 107.388,25.2751 109.5,24.5C 109.334,29.5111 109.501,34.5111 110,39.5C 113.37,42.7652 117.203,43.4318 121.5,41.5C 117.221,44.213 113.055,43.8797 109,40.5C 108.667,35.5 108.333,30.5 108,25.5C 105.955,27.0432 104.455,26.7099 103.5,24.5 Z"/></g>
<g><path style="opacity:1" fill="#20221e" d="M 130.5,50.5 C 131.091,49.8485 131.757,49.1818 132.5,48.5C 131.167,46.8333 131.167,45.1667 132.5,43.5C 131.609,42.4104 130.609,42.4104 129.5,43.5C 128.591,41.6253 127.257,40.292 125.5,39.5C 128.091,36.7052 129.425,37.3719 129.5,41.5C 134.406,40.9541 135.406,42.4541 132.5,46C 136.487,48.9222 135.82,50.4222 130.5,50.5 Z"/></g>
<g><path style="opacity:1" fill="#171615" d="M 69.5,49.5 C 68.7611,49.631 68.0944,49.4643 67.5,49C 68.7101,47.9609 69.7101,46.7942 70.5,45.5C 70.4346,45.0618 70.6012,44.7284 71,44.5C 71.6128,46.4952 71.1128,48.1619 69.5,49.5 Z"/></g>
<g><path style="opacity:1" fill="#191b17" d="M 70.5,50.5 C 70.7352,49.9033 71.2352,49.5699 72,49.5C 74.5602,50.53 77.0602,51.6966 79.5,53C 80.8228,53.8159 81.4894,54.9826 81.5,56.5C 78.2867,53.7256 74.62,51.7256 70.5,50.5 Z"/></g>
<g><path style="opacity:1" fill="#1e1e1c" d="M 125.5,52.5 C 124.19,54.1477 122.857,55.8144 121.5,57.5C 122.127,58.4168 122.461,59.4168 122.5,60.5C 119.483,56.6229 120.483,53.9562 125.5,52.5 Z"/></g>
<g><path style="opacity:1" fill="#1d1c1b" d="M 81.5,56.5 C 82.2989,60.0715 80.6323,62.0715 76.5,62.5C 78.8835,61.1149 80.5501,59.1149 81.5,56.5 Z"/></g>
<g><path style="opacity:1" fill="#1a1a18" d="M 122.5,60.5 C 124.84,61.086 127.007,62.086 129,63.5C 128.207,65.5005 128.374,67.5005 129.5,69.5C 128.373,68.8783 127.373,68.045 126.5,67C 127.731,65.8173 127.731,64.6507 126.5,63.5C 124.739,62.9649 123.406,61.9649 122.5,60.5 Z"/></g>
<g><path style="opacity:1" fill="#2f2d2c" d="M 100.5,68.5 C 101.167,111.167 101.833,111.167 102.5,68.5C 110.118,68.406 117.285,70.0727 124,73.5C 124.483,72.552 124.649,71.552 124.5,70.5C 126.415,70.7845 128.081,70.4511 129.5,69.5C 130.289,69.7828 130.956,70.2828 131.5,71C 129.527,71.4955 127.527,71.6621 125.5,71.5C 125.657,72.8734 125.49,74.2068 125,75.5C 118.404,71.5585 111.237,69.5585 103.5,69.5C 103.5,80.1667 103.5,90.8333 103.5,101.5C 102.167,101.5 100.833,101.5 99.5,101.5C 99.5,90.8333 99.5,80.1667 99.5,69.5C 93.3928,69.9436 87.3928,70.9436 81.5,72.5C 82.842,71.207 84.5087,70.3736 86.5,70C 91.1373,69.1706 95.804,68.6706 100.5,68.5 Z"/></g>
<g><path style="opacity:1" fill="#15331a" d="M 100.5,68.5 C 101.167,68.5 101.833,68.5 102.5,68.5C 101.833,111.167 101.167,111.167 100.5,68.5 Z"/></g>
<g><path style="opacity:1" fill="#1f251e" d="M 73.5,69.5 C 76.0572,70.5879 78.7238,71.5879 81.5,72.5C 80.2196,73.9313 78.5529,74.5979 76.5,74.5C 76.5,73.5 76.5,72.5 76.5,71.5C 74.8008,71.6602 73.1341,71.4935 71.5,71C 72.0442,70.2828 72.7109,69.7828 73.5,69.5 Z"/></g>
<g><path style="opacity:1" fill="#291916" d="M 153.5,28.5 C 153.5,28.8333 153.5,29.1667 153.5,29.5C 137.072,80.7838 120.072,131.784 102.5,182.5C 102.167,182.5 101.833,182.5 101.5,182.5C 118.659,131.023 135.992,79.6898 153.5,28.5 Z"/></g>
<g><path style="opacity:1" fill="#fdfdfd" d="M -0.5,116.5 C 6.47145,157.805 30.4715,182.805 71.5,191.5C 47.5,191.5 23.5,191.5 -0.5,191.5C -0.5,166.5 -0.5,141.5 -0.5,116.5 Z"/></g>
<g><path style="opacity:1" fill="#fcfcfc" d="M 165.5,118.5 C 165.5,142.833 165.5,167.167 165.5,191.5C 141.167,191.5 116.833,191.5 92.5,191.5C 133.179,183.488 157.512,159.154 165.5,118.5 Z"/></g>
</svg>

<svg xmlns="http://www.w3.org/2000/svg" width="166" height="192" style="shape-rendering:geometricPrecision;text-rendering:geometricPrecision;image-rendering:optimizeQuality;fill-rule:evenodd;clip-rule:evenodd"><path style="opacity:1" fill="#0d0908" d="M-.5-.5h166v119c-7.988 40.654-32.321 64.988-73 73h-21c-41.029-8.695-65.029-33.695-72-75V-.5z"/><path style="opacity:1" fill="#413e3c" d="M42.5 3.5a3540.838 3540.838 0 0 1 119-1v3h-1c-38.986-1.994-78.32-2.66-118-2z"/><path style="opacity:1" fill="#fdfdfd" d="M3.5 3.5a343.124 343.124 0 0 1 37 1A20889.959 20889.959 0 0 0 4 113.5a6050.43 6050.43 0 0 1-.5-110zM42.5 4.5v-1c39.68-.66 79.014.006 118 2a152.543 152.543 0 0 0-7 23 20842.344 20842.344 0 0 0-52 154v1a28083.645 28083.645 0 0 0-59-179z"/><path style="opacity:1" fill="#341914" d="M160.5 5.5h1a1431.983 1431.983 0 0 1 0 107c.167-34.668 0-69.335-.5-104a258.338 258.338 0 0 1-7.5 21v-1a152.543 152.543 0 0 1 7-23z"/><path style="opacity:1" fill="#d73023" d="M41.5 5.5a28080.465 28080.465 0 0 0 59 179c-36.826 7.658-65.66-4.342-86.5-36-6.448-10.462-9.448-21.796-9-34a20872.472 20872.472 0 0 1 36.5-109z"/><path style="opacity:1" fill="#2c211e" d="M41.5 5.5c0-.667.333-1 1-1a28083.645 28083.645 0 0 1 59 179c0 .667-.333 1-1 1a28080.465 28080.465 0 0 1-59-179z"/><path style="opacity:1" fill="#d63023" d="M161.5 112.5c-3.432 36.421-22.432 60.421-57 72-1.213-.247-1.88-.914-2-2a6854.812 6854.812 0 0 0 51-153 258.338 258.338 0 0 0 7.5-21c.5 34.665.667 69.332.5 104z"/><path style="opacity:1" fill="#262524" d="m103.5 24.5-3-2c-.131-.876.202-1.543 1-2 1.205 1.077 1.872 2.41 2 4z"/><path style="opacity:1" fill="#185a2a" d="m100.5 22.5 3 2c.955 2.21 2.455 2.543 4.5 1l1 15c4.055 3.38 8.221 3.713 12.5 1 1.014-1.174 2.347-1.84 4-2 1.757.792 3.091 2.125 4 4 1.109-1.09 2.109-1.09 3 0-1.333 1.667-1.333 3.333 0 5a30.968 30.968 0 0 0-2 2c-1.28 1.431-2.947 2.098-5 2-5.017 1.456-6.017 4.123-3 8 .906 1.465 2.239 2.465 4 3 1.231 1.15 1.231 2.317 0 3.5a10.51 10.51 0 0 0 3 2.5c-1.419.951-3.085 1.284-5 1a4.934 4.934 0 0 1-.5 3c-6.715-3.427-13.882-5.094-21.5-5h-2c-4.696.17-9.363.67-14 1.5-1.991.374-3.658 1.207-5 2.5a100.787 100.787 0 0 1-8-3c1.046-2.285 1.046-4.618 0-7h3c4.132-.428 5.799-2.428 5-6-.01-1.517-.677-2.684-2-3.5a76.507 76.507 0 0 0-7.5-3.5c-.765.07-1.265.403-1.5 1-.667 0-1-.333-1-1 1.613-1.338 2.113-3.005 1.5-5-.399.228-.565.562-.5 1-.838-.342-1.172-1.008-1-2 1.419-.951 3.085-1.285 5-1v-3h3c4.383 4.033 9.383 4.866 15 2.5.752-.67 1.086-1.504 1-2.5.826-4.482 1.326-9.149 1.5-14 2.045 1.543 3.545 1.21 4.5-1-.172-.992.162-1.658 1-2z"/><path style="opacity:1" fill="#0c0c0a" d="M99.5 24.5c-.955 2.21-2.455 2.543-4.5 1-.174 4.851-.674 9.518-1.5 14-.166-5.344 0-10.677.5-16 1.7 1.799 3.533 2.132 5.5 1z"/><path style="opacity:1" fill="#282c26" d="M77.5 39.5c3.321.995 6.654 1.995 10 3 2.24-.629 4.24-1.629 6-3 .086.996-.248 1.83-1 2.5-5.617 2.366-10.617 1.533-15-2.5z"/><path style="opacity:1" fill="#181716" d="M77.5 39.5h-3v3c-1.915-.285-3.581.049-5 1-.543-.06-.876-.393-1-1 1.545-.952 3.212-1.285 5-1 .076-4.128 1.409-4.795 4-2z"/><path style="opacity:1" fill="#1f241e" d="M103.5 24.5c1.888.775 3.888.775 6 0a112.97 112.97 0 0 0 .5 15c3.37 3.265 7.203 3.932 11.5 2-4.279 2.713-8.445 2.38-12.5-1l-1-15c-2.045 1.543-3.545 1.21-4.5-1z"/><path style="opacity:1" fill="#20221e" d="M130.5 50.5a30.968 30.968 0 0 1 2-2c-1.333-1.667-1.333-3.333 0-5-.891-1.09-1.891-1.09-3 0-.909-1.875-2.243-3.208-4-4 2.591-2.795 3.925-2.128 4 2 4.906-.546 5.906.954 3 4.5 3.987 2.922 3.32 4.422-2 4.5z"/><path style="opacity:1" fill="#171615" d="M69.5 49.5a2.428 2.428 0 0 1-2-.5 14.692 14.692 0 0 0 3-3.5c-.065-.438.101-.772.5-1 .613 1.995.113 3.662-1.5 5z"/><path style="opacity:1" fill="#191b17" d="M70.5 50.5c.235-.597.735-.93 1.5-1a76.507 76.507 0 0 1 7.5 3.5c1.323.816 1.99 1.983 2 3.5-3.213-2.774-6.88-4.774-11-6z"/><path style="opacity:1" fill="#1e1e1c" d="M125.5 52.5c-1.31 1.648-2.643 3.314-4 5a5.575 5.575 0 0 1 1 3c-3.017-3.877-2.017-6.544 3-8z"/><path style="opacity:1" fill="#1d1c1b" d="M81.5 56.5c.799 3.572-.868 5.572-5 6 2.383-1.385 4.05-3.385 5-6z"/><path style="opacity:1" fill="#1a1a18" d="M122.5 60.5a19.209 19.209 0 0 1 6.5 3c-.793 2-.626 4 .5 6a10.51 10.51 0 0 1-3-2.5c1.231-1.183 1.231-2.35 0-3.5-1.761-.535-3.094-1.535-4-3z"/><path style="opacity:1" fill="#2f2d2c" d="M100.5 68.5c.667 42.667 1.333 42.667 2 0 7.618-.094 14.785 1.573 21.5 5a4.934 4.934 0 0 0 .5-3c1.915.284 3.581-.049 5-1 .789.283 1.456.783 2 1.5a18.437 18.437 0 0 1-6 .5 8.43 8.43 0 0 1-.5 4c-6.596-3.942-13.763-5.942-21.5-6v32h-4v-32a98.19 98.19 0 0 0-18 3c1.342-1.293 3.009-2.126 5-2.5 4.637-.83 9.304-1.33 14-1.5z"/><path style="opacity:1" fill="#15331a" d="M100.5 68.5h2c-.667 42.667-1.333 42.667-2 0z"/><path style="opacity:1" fill="#1f251e" d="M73.5 69.5a100.787 100.787 0 0 0 8 3c-1.28 1.431-2.947 2.098-5 2v-3c-1.7.16-3.366-.007-5-.5.544-.717 1.21-1.217 2-1.5z"/><path style="opacity:1" fill="#291916" d="M153.5 28.5v1a6854.812 6854.812 0 0 1-51 153h-1a20842.344 20842.344 0 0 1 52-154z"/><path style="opacity:1" fill="#fdfdfd" d="M-.5 116.5c6.971 41.305 30.971 66.305 72 75h-72v-75z"/><path style="opacity:1" fill="#fcfcfc" d="M165.5 118.5v73h-73c40.679-8.012 65.012-32.346 73-73z"/></svg>
